X:1
T:Jennie's Chickens
R:reel
M:4/4
L:1/8
K:Bdor
|: f2fa fece | fefa eAce | f2fa fece | fgaf eAce :|
|:fBBA B2 ce | fB B2 eAce | fBBA B2 ce |1 fgaf eAce :|2 fgaf eAcA |:
B2 bB aBgB | B2 af eAcA | B2 bB aBgB |1 fgaf eAcA :|2 fgaf eAce |]

